assets/icons/standard/service_resource.svg

<svg xmlns="http://www.w3.org/2000/svg" width="100" height="100" viewBox="0 0 100 100"><path d="M71.83,20H28.3A8.11,8.11,0,0,0,20,27.81V72.19A8.08,8.08,0,0,0,28.16,80h11c1.1-4.54,6.46-7.17,12.14-9.49,4.24-1.8,4.89-3.34,4.89-5.14s-1.29-3.47-2.7-4.76a11.3,11.3,0,0,1-3.86-9c0-6.69,4.37-12.6,12-12.6s12,5.79,12,12.6a12.13,12.13,0,0,1-3.86,9c-1.41,1.41-2.7,3-2.7,4.76s.51,3.34,4.89,5.14a41.53,41.53,0,0,1,7.78,3.91A7.28,7.28,0,0,0,80,72.19V27.81C80.14,23.56,76.42,20,71.83,20ZM47.61,33.35a2.85,2.85,0,0,1-2.76,2.75H30.78A2.85,2.85,0,0,1,28,33.35V30.6a2.85,2.85,0,0,1,2.76-2.75H44.85a2.85,2.85,0,0,1,2.76,2.75Z" fill="#fff" fill-rule="evenodd"/></svg>

<?xml version="1.0"?><svg xmlns="http://www.w3.org/2000/svg" width="100" height="100" viewBox="0 0 100 100"><title></title><path d="m71.8 20h-43.5a8.1 8.1 0 0 0-8.3 7.8v44.4a8.1 8.1 0 0 0 8.2 7.8h11c1.1-4.5 6.4-7.2 12.1-9.5 4.2-1.8 4.9-3.3 4.9-5.1s-1.3-3.5-2.7-4.8a11.3 11.3 0 0 1-3.9-9c0-6.7 4.4-12.6 12-12.6s12 5.8 12 12.6a12.1 12.1 0 0 1-3.8 9c-1.4 1.4-2.7 3-2.7 4.8s0.5 3.3 4.9 5.1a41.5 41.5 0 0 1 7.7 3.9 7.3 7.3 0 0 0 0.3-2.2v-44.4c0.1-4.2-3.6-7.8-8.2-7.8z m-24.2 13.4a2.9 2.9 0 0 1-2.7 2.7h-14.1a2.9 2.9 0 0 1-2.8-2.7v-2.8a2.9 2.9 0 0 1 2.8-2.7h14a2.9 2.9 0 0 1 2.8 2.7z" fill="#fff" fill-rule="evenodd"></path></svg>
